dist/images/icons/handshake.svg

<svg width="16" height="16" viewBox="0 0 16 16" fill="none" xmlns="http://www.w3.org/2000/svg">
<path opacity="0.2" d="M12.5 9.55331L10.2002 11.8531C10.1391 11.9142 10.0633 11.9584 9.98009 11.9814C9.89688 12.0045 9.80912 12.0056 9.72536 11.9847L6.10305 11.0791C6.03511 11.0621 5.97149 11.031 5.91632 10.9879L2.5 8.31645L4.5359 4.48633L7.7434 3.55123C7.85798 3.51783 7.98072 3.52651 8.08946 3.57571L10.25 4.55331H8.95711C8.89145 4.55331 8.82643 4.56625 8.76577 4.59137C8.7051 4.6165 8.64998 4.65333 8.60355 4.69976L6.15765 7.14566C6.107 7.19632 6.06782 7.25727 6.04277 7.32438C6.01772 7.39149 6.00738 7.4632 6.01246 7.53466C6.01754 7.60612 6.03791 7.67565 6.0722 7.73854C6.10649 7.80144 6.15389 7.85624 6.2112 7.89922L6.55 8.15331C6.89619 8.41296 7.31726 8.55331 7.75 8.55331C8.18274 8.55331 8.60381 8.41296 8.95 8.15331L9.75 7.55331L12.5 9.55331Z" fill="#4D5A65"/>
<path fill-rule="evenodd" clip-rule="evenodd" d="M12.837 3.32628C13.0715 3.20903 13.3426 3.18856 13.5921 3.26928C13.8415 3.34999 14.0493 3.52544 14.1706 3.75783L15.7077 6.7014L15.2645 6.93283L15.7077 6.7014C15.7691 6.81912 15.8065 6.9479 15.8177 7.08023M12.1788 4.77342L13.7158 7.71698L14.8212 7.16427M12.1788 4.77342L13.2842 4.2207L14.8212 7.16427M12.837 3.32628L11.2764 4.10657L12.837 3.32628ZM11.2764 4.10657C11.1564 4.16655 11.0656 4.27223 11.0243 4.39984L11.2764 4.10657ZM11.0243 4.39984C10.983 4.52746 10.9947 4.66632 11.0568 4.78522L11.0243 4.39984ZM11.0568 4.78522L13.0568 8.61534L11.0568 4.78522ZM15.8177 7.08023C15.8289 7.21256 15.8136 7.34579 15.7727 7.47214C15.7318 7.59849 15.6661 7.71544 15.5796 7.81614C15.493 7.91685 15.3872 7.9993 15.2685 8.05869L13.7236 8.83112C13.4797 8.95308 13.183 8.85708 13.0568 8.61534" fill="black"/>
<path fill-rule="evenodd" clip-rule="evenodd" d="M3.16298 3.25987L2.94049 3.70486L3.16298 3.25987L4.72356 4.04016C4.84354 4.10015 4.93437 4.20582 4.97567 4.33344C5.01697 4.46105 5.00526 4.59991 4.94317 4.71881L2.94317 8.54894C2.81694 8.79068 2.52028 8.88668 2.27635 8.76471L0.731498 7.99229L0.955104 7.54508L0.731497 7.99229C0.612717 7.9329 0.506955 7.85045 0.420384 7.74974C0.333814 7.64903 0.26817 7.53209 0.227284 7.40574C0.186398 7.27939 0.171088 7.14616 0.182248 7.01383C0.193409 6.8815 0.230815 6.75271 0.292285 6.63499L1.82934 3.69143C1.82934 3.69143 1.82934 3.69143 1.82934 3.69143C1.95069 3.45903 2.15846 3.28359 2.40789 3.20287C2.65733 3.12216 2.92849 3.14262 3.16298 3.25987ZM3.8212 4.70701L2.71577 4.1543L2.93938 3.70708L2.71577 4.1543L1.17871 7.09786L2.28415 7.65058L3.8212 4.70701Z" fill="black"/>
<path fill-rule="evenodd" clip-rule="evenodd" d="M2.10615 8.00843C2.27625 7.7909 2.59049 7.75245 2.80802 7.92255L6.22434 10.594L9.84665 11.4996L12.1327 9.21355L13.12 8.05854C13.2994 7.84863 13.615 7.82392 13.8249 8.00335C14.0348 8.18277 14.0595 8.49839 13.8801 8.7083L12.8801 9.87817C12.8716 9.88807 12.8628 9.89763 12.8536 9.90684L10.5538 12.2067C10.4316 12.3288 10.28 12.4172 10.1136 12.4633C9.94716 12.5094 9.77164 12.5116 9.60411 12.4697L5.98181 11.5641C5.84592 11.5302 5.71869 11.468 5.60835 11.3817L2.19203 8.7103C1.97449 8.5402 1.93604 8.22596 2.10615 8.00843Z" fill="black"/>
<path fill-rule="evenodd" clip-rule="evenodd" d="M8.57445 4.13081C8.69578 4.08055 8.82581 4.05469 8.95713 4.05469H11.5C11.7762 4.05469 12 4.27855 12 4.55469C12 4.83083 11.7762 5.05469 11.5 5.05469L8.95713 5.05469L6.51123 7.50059L6.2166 7.20596L6.51123 7.50059L6.85003 7.75469C7.10967 7.94942 7.42547 8.05469 7.75003 8.05469C8.07458 8.05469 8.39038 7.94942 8.65003 7.75469L9.45003 7.15469C9.62563 7.02299 9.86659 7.02121 10.0441 7.15032L12.7941 9.15032C13.0174 9.31274 13.0668 9.62545 12.9044 9.84877C12.742 10.0721 12.4293 10.1215 12.2059 9.95906L9.7546 8.17626L9.25003 8.55469C8.81729 8.87924 8.29095 9.05469 7.75003 9.05469C7.2091 9.05469 6.68277 8.87924 6.25003 8.55469L5.91123 8.30059C5.79661 8.21463 5.7018 8.10504 5.63323 7.97924C5.56465 7.85345 5.5239 7.71439 5.51375 7.57148C5.50359 7.42857 5.52426 7.28514 5.57436 7.15091C5.62446 7.01669 5.70281 6.89479 5.80412 6.79348L8.25003 4.34758C8.34289 4.25472 8.45313 4.18106 8.57445 4.13081Z" fill="black"/>
<path fill-rule="evenodd" clip-rule="evenodd" d="M7.60333 3.07122C7.83249 3.00441 8.07799 3.02178 8.29546 3.12018L10.456 4.09778C10.7076 4.21162 10.8193 4.50785 10.7054 4.75944C10.5916 5.01102 10.2953 5.12269 10.0438 5.00885L7.88321 4.03125L4.67572 4.96635C4.41061 5.04363 4.13304 4.89138 4.05576 4.62627C3.97847 4.36116 4.13073 4.0836 4.39583 4.00631L7.60333 3.07122L7.74327 3.55123L7.60333 3.07122Z" fill="black"/>
</svg>

<svg width="16" height="16" fill="none" xmlns="http://www.w3.org/2000/svg"><path opacity=".2" d="M12.5 9.553l-2.3 2.3a.5.5 0 01-.475.132l-3.622-.906a.5.5 0 01-.187-.091L2.5 8.316l2.036-3.83 3.207-.935a.5.5 0 01.346.025l2.161.977H8.957a.5.5 0 00-.353.147L6.158 7.146a.5.5 0 00.053.753l.339.254a2 2 0 002.4 0l.8-.6 2.75 2z" fill="#4D5A65"/><path fill-rule="evenodd" clip-rule="evenodd" d="M12.837 3.326a1 1 0 011.334.432L15.708 6.7l-.444.232.444-.232c.061.118.098.247.11.38m-3.64-2.308l1.538 2.944 1.105-.553m-2.642-2.39l1.105-.553 1.537 2.943m-1.984-3.838l-1.56.78 1.56-.78zm-1.56.78a.5.5 0 00-.253.294l.252-.293zm-.253.294a.5.5 0 00.033.385l-.033-.385zm.033.385l2 3.83-2-3.83zm4.76 2.295a.999.999 0 01-.549.979l-1.544.772a.5.5 0 01-.667-.216M3.163 3.26l-.223.445.223-.445 1.56.78a.5.5 0 01.22.679l-2 3.83a.5.5 0 01-.667.216L.731 7.992l.224-.447-.224.447a1 1 0 01-.439-1.357L1.83 3.691a1 1 0 011.334-.431zm.658 1.447l-1.105-.553.223-.447-.223.447-1.537 2.944 1.105.553 1.537-2.944z" fill="#000"/><path fill-rule="evenodd" clip-rule="evenodd" d="M2.106 8.008a.5.5 0 01.702-.085l3.416 2.671 3.623.906 2.286-2.286.987-1.155a.5.5 0 11.76.65l-1 1.17a.517.517 0 01-.026.028l-2.3 2.3a1 1 0 01-.95.263l-3.622-.906a.999.999 0 01-.374-.182L2.192 8.71a.5.5 0 01-.086-.702z" fill="#000"/><path fill-rule="evenodd" clip-rule="evenodd" d="M8.574 4.13a1 1 0 01.383-.075H11.5a.5.5 0 110 1H8.957L6.511 7.5l-.294-.295.294.295.339.254a1.5 1.5 0 001.8 0l.8-.6a.5.5 0 01.594-.005l2.75 2a.5.5 0 01-.588.81L9.755 8.175l-.505.379a2.5 2.5 0 01-3 0L5.911 8.3a1 1 0 01-.107-1.508L8.25 4.348a1 1 0 01.324-.217z" fill="#000"/><path fill-rule="evenodd" clip-rule="evenodd" d="M7.603 3.071a1 1 0 01.692.05l2.161.977a.5.5 0 11-.412.91l-2.16-.977-3.208.935a.5.5 0 01-.28-.96l3.207-.935.14.48-.14-.48z" fill="#000"/></svg>
